X: 1
T:Garrett Barry's Reel
R:reel
H:A version of "Mrs McLeod's". See also #55, #663
Z:id:hn-reel-491
M:C|
K:G
BA|GB~B2 d2Bd|edBe dBAB|~G3B dedB|ABGE D2BA|
GB~B2 d2Bd|gedB G2Bd|edcB cdef|gedB A2:|
|:Bd|~g3b afge|dBBA GABd|~g3a g2ed|eaag a2ga|
bg~g2 ageg|dBBA G2Bd|edcB cdef|gedB A2:|
